src/hbcore/resources/themes/icons/hbdefault/scalable/qtg_mono_voice_mailbox.svg

<?xml version="1.0" encoding="UTF-8"?>
<!DOCTYPE svg PUBLIC "-//W3C//DTD SVG 1.1 Tiny//EN" "http://www.w3.org/Graphics/SVG/1.1/DTD/svg11-tiny.dtd">
<svg baseProfile="tiny" height="30" viewBox="0 0 30 30" width="30" xmlns="http://www.w3.org/2000/svg" xmlns:xlink="http://www.w3.org/1999/xlink">
<rect fill="none" height="30" width="30"/>
<path d="M23.5,8.5c-3.59,0-6.5,2.91-6.5,6.5,0,1.748,0.693,3.332,1.816,4.5h-7.633c1.12-1.17,1.81-2.75,1.81-4.5,0-3.59-2.91-6.5-6.5-6.5s-6.5,2.91-6.5,6.5,2.91,6.5,6.5,6.5h17c3.59,0,6.5-2.91,6.5-6.5s-2.91-6.5-6.5-6.5zm-20.5,6.5c0-1.93,1.57-3.5,3.5-3.5s3.5,1.57,3.5,3.5-1.57,3.5-3.5,3.5-3.5-1.57-3.5-3.5zm20.5,3.5c-1.93,0-3.5-1.57-3.5-3.5s1.57-3.5,3.5-3.5,3.5,1.57,3.5,3.5-1.57,3.5-3.5,3.5z"/>
</svg>

<?xml version="1.0" encoding="UTF-8"?>
<!DOCTYPE svg PUBLIC "-//W3C//DTD SVG 1.1 Tiny//EN" "http://www.w3.org/Graphics/SVG/1.1/DTD/svg11-tiny.dtd">
<svg baseProfile="tiny" height="30px" version="1.1" viewBox="0 0 30 30" width="30px" x="0px" xmlns="http://www.w3.org/2000/svg" xmlns:xlink="http://www.w3.org/1999/xlink" y="0px">
<g fill-opacity="0.5" stroke-opacity="0.5">
<rect fill="none" height="30" width="30"/>
</g>
<path d="M23.5,8.5c-3.59,0-6.5,2.91-6.5,6.5c0,1.748,0.693,3.332,1.816,4.5h-7.633C12.306,18.332,13,16.748,13,15  c0-3.59-2.91-6.5-6.5-6.5S0,11.41,0,15s2.91,6.5,6.5,6.5h17c3.59,0,6.5-2.91,6.5-6.5S27.09,8.5,23.5,8.5z M3,15  c0-1.93,1.57-3.5,3.5-3.5S10,13.07,10,15s-1.57,3.5-3.5,3.5S3,16.93,3,15z M23.5,18.5c-1.93,0-3.5-1.57-3.5-3.5s1.57-3.5,3.5-3.5  S27,13.07,27,15S25.43,18.5,23.5,18.5z"/>
</svg>
